X: 27194
T: Miss Murphy
R: reel
M: 4/4
K: Cmajor
gf|e2 g2 d2 g2|c2 g2 B2 g2|fedc B2 d2|cBAG G2 cB|
A2 c2 G2 c2|F2 d2 cBAG|FG A2 D2 G2|E2 DC C2 z2||
GAGF E2 C2|EF G2 G2 c2|Bc d2 dedc|B2 G2 G4|
g2 f2 g2 f2|efge dc B2|a2 a2 g2 f2|fgfe d2 g2|
e2 dc a2 c2|f2 a2 a2 gf|edec d2 cB|c2 c2 c2||

